!!!SOCIAL_FUNCTION:	dream songs
!!!PDT:	1913
!!!OTL: No_129_Dream_Song.krn
!!!REG: Great_Lakes
!!!LANG: Non-Tone
!!!LING_GROUP: Algonquin
**kern	**kern
*staff2	*staff1
=1-	=1-
*clefF4	*clefG2
*k[b-e-a-d-g-]	*k[b-e-a-d-g-]
*M2/4	*M2/4
12GG-^/	4a-/
12r	.
12GG-/	.
12GG-^/	8f/L
12r	.
.	8a-/J
12GG-/	.
=2	=2
2r	2a-/
=3	=3
2r	8a-/L
.	8f/J
.	4d-/
=4	=4
2r	8f/L
.	8f/J
.	8f/L
.	8e-/J
=5	=5
2r	8f/L
.	8f/J
.	8.d-/L
.	16d-/Jk
=6	=6
2r	4.d-/
.	8d-/
=7||	=7||
*M3/4	*M3/4
2.r	2.d-/
=8	=8
2.r	8f/L
.	8f/J
.	8d-/L
.	8e-/J
.	8f/L
.	8d-/J
=9||	=9||
*M2/4	*M2/4
2r	2d-/
=10	=10
2r	8.d-/L
.	16B-/Jk
.	4A-/
=11||	=11||
*M3/4	*M3/4
2.r	4d-/
.	4d-/
.	8.d-/L
.	16B-/Jk
*	*clefF4
=12	=12
2.r	4A-\
.	4A-\
.	4F\
=13	=13
2.r	4A-\
.	[2A-\
=14||	=14||
*M2/4	*M2/4
2r	8A-\L]
.	8F\J
.	4D-\
=15||	=15||
*M3/4	*M3/4
2.r	8F\L
.	8F\J
.	8F\L
.	8E-\J
.	8.F\L
.	16E-\Jk
=16	=16
2.r	4D-\
.	4.D-\
.	8D-\
=17	=17
2.r	2.D-\
*	*clefG2
=18||	=18||
*M2/4	*M2/4
.	d-q/
2r	4d-/
.	8B-/L
.	8d-/J
=19||	=19||
*M3/4	*M3/4
2.r	2.d-/
=20	=20
2.r	8f/L
.	8f/J
.	8d-/L
.	8e-/J
.	8f/L
.	8d-/J
*	*clefF4
=21||	=21||
*M2/4	*M2/4
2r	2d-\
=22	=22
2r	8.d-\L
.	16B-\Jk
.	4A-\
=23||	=23||
*M3/4	*M3/4
2.r	4d-\
.	4d-\
.	8.d-\L
.	16B-\Jk
=24	=24
2.r	4A-\
.	4A-\
.	4F\
=25	=25
2.r	4A-\
.	[2A-\
=26||	=26||
*M2/4	*M2/4
2r	8A-\L]
.	8F\J
.	4D-\
=27||	=27||
*M3/4	*M3/4
2.r	8F\L
.	8F\J
.	8F\L
.	8E-\J
.	8.F\L
.	16E-\Jk
=28	=28
2.r	4D-\
.	4.D-\
.	8D-\
=29	=29
2.r	2.D-\
==	==
*-	*-
